openmetadata-ui/src/main/resources/ui/src/assets/svg/404-number.svg

<svg width="107" height="567" viewBox="0 0 107 567" fill="none" xmlns="http://www.w3.org/2000/svg">
<path d="M0.629262 107.989H63.4631V131H89.9261V107.989H106.162V85.8082H89.9261V0.0909052H55.2812L0.629262 86.1918V107.989ZM63.9744 85.8082H28.4986V84.7855L62.9517 30.2614H63.9744V85.8082ZM53.9389 351.876C86.858 351.876 106.737 326.82 106.801 283.673C106.865 240.847 86.7301 216.301 53.9389 216.301C21.0838 216.301 1.14062 240.783 1.0767 283.673C0.948864 326.692 20.956 351.812 53.9389 351.876ZM53.9389 328.929C38.9176 328.929 29.2017 313.844 29.2656 283.673C29.3295 253.95 38.9815 238.993 53.9389 238.993C68.8324 238.993 78.5483 253.95 78.5483 283.673C78.6122 313.844 68.8963 328.929 53.9389 328.929ZM0.629262 543.989H63.4631V567H89.9261V543.989H106.162V521.808H89.9261V436.091H55.2812L0.629262 522.192V543.989ZM63.9744 521.808H28.4986V520.786L62.9517 466.261H63.9744V521.808Z" fill="#6B6B6B" fill-opacity="0.06"/>
</svg>

<svg xmlns="http://www.w3.org/2000/svg" width="107" height="567" fill="none"><path fill="#6B6B6B" fill-opacity=".06" d="M.63 107.989h62.833V131h26.463v-23.011h16.236v-22.18H89.926V.09H55.281L.63 86.19v21.798Zm63.344-22.18H28.5v-1.023L62.952 30.26h1.022v55.547ZM53.94 351.875c32.919 0 52.798-25.056 52.862-68.203.064-42.826-20.07-67.372-52.862-67.372-32.855 0-52.798 24.482-52.862 67.372-.128 43.019 19.879 68.139 52.862 68.203Zm0-22.947c-15.021 0-24.737-15.085-24.673-45.256.064-29.723 9.715-44.68 24.673-44.68 14.893 0 24.61 14.957 24.61 44.68.063 30.171-9.653 45.256-24.61 45.256ZM.629 543.989h62.834V567h26.463v-23.011h16.236v-22.181H89.926v-85.717H55.281L.63 522.192v21.797Zm63.345-22.181H28.5v-1.022l34.453-54.525h1.022v55.547Z"/></svg>
